icons-rebrand/svg/file-annotation-filled.svg

<svg width="32" height="32" viewBox="0 0 32 32" fill="none" xmlns="http://www.w3.org/2000/svg">
<path fill-rule="evenodd" clip-rule="evenodd" d="M8.99994 2.49974H22.9999C24.193 2.50105 25.3368 2.97557 26.1805 3.8192C27.0241 4.66283 27.4986 5.80667 27.4999 6.99974V24.9997C27.4986 26.1928 27.0241 27.3367 26.1805 28.1803C25.3368 29.0239 24.193 29.4984 22.9999 29.4997H8.99994C7.80686 29.4984 6.66303 29.0239 5.81939 28.1803C4.97576 27.3367 4.50124 26.1928 4.49994 24.9997V6.99974C4.50124 5.80667 4.97577 4.66283 5.8194 3.8192C6.66303 2.97557 7.80686 2.50104 8.99994 2.49974ZM20.6931 21.7496C20.9136 21.6108 21.1206 21.4515 21.3113 21.274C21.5037 21.0914 21.7607 20.9927 22.0259 20.9996C22.2911 21.0066 22.5427 21.1186 22.7253 21.311C22.9079 21.5035 23.0066 21.7606 22.9996 22.0258C22.9926 22.2909 22.8806 22.5425 22.6882 22.7251C22.0093 23.4442 21.0955 23.8966 20.112 24.0005C19.8852 24.0037 19.6601 23.9606 19.4506 23.8737C19.241 23.7869 19.0514 23.6583 18.8933 23.4956C18.03 22.6323 18.6413 21.3677 19.2888 20.0288C19.4265 19.7437 19.6267 19.3286 19.78 18.9546C19.3347 19.2739 18.8102 19.7007 18.4323 20.0083C16.7126 21.4087 15.0866 22.729 13.9401 21.5806C12.8776 20.5171 14.0007 18.9644 15.4235 16.9995C16.1411 16.0877 16.7595 15.102 17.2683 14.0591C16.1179 14.4693 13.2653 16.9019 10.739 19.6734C10.6509 19.7718 10.5441 19.8519 10.4249 19.9089C10.3057 19.9659 10.1764 19.9987 10.0444 20.0055C9.9124 20.0122 9.7804 19.9927 9.656 19.9481C9.5316 19.9035 9.41726 19.8348 9.3196 19.7457C9.22194 19.6567 9.14288 19.5492 9.087 19.4295C9.03112 19.3097 8.99952 19.1801 8.99403 19.0481C8.98854 18.916 9.00926 18.7842 9.05501 18.6602C9.10075 18.5363 9.17061 18.4226 9.26054 18.3257C10.5887 16.8687 15.1062 12.107 17.4773 12.0015C17.7085 11.9847 17.9407 12.0146 18.16 12.0897C18.3793 12.1647 18.5813 12.2832 18.7537 12.4381C20.2195 13.7818 18.6052 16.0132 17.0437 18.1715L17.0256 18.1964C16.8334 18.4624 16.6102 18.771 16.3962 19.0787C16.6746 18.8599 16.947 18.6392 17.1697 18.4576C18.906 17.0425 20.407 15.8228 21.5144 16.9312C22.5203 17.9381 21.7605 19.5113 21.0896 20.899C20.9675 21.15 20.8152 21.4654 20.6931 21.7496Z" fill="black"/>
</svg>

<svg id="Layer_1" data-name="Layer 1" xmlns="http://www.w3.org/2000/svg" viewBox="0 0 32 32"><defs><style>.cls-1{fill:#0f0f0f;fill-rule:evenodd;}</style></defs><path class="cls-1" d="M26.18,3.819A4.5,4.5,0,0,0,23,2.5H9A4.5,4.5,0,0,0,4.5,7V25A4.505,4.505,0,0,0,9,29.5H23A4.507,4.507,0,0,0,27.5,25V7A4.5,4.5,0,0,0,26.18,3.819ZM22.688,22.725A4.135,4.135,0,0,1,20.112,24a1.645,1.645,0,0,1-.661-.126,1.676,1.676,0,0,1-.558-.378c-.863-.864-.252-2.128.4-3.467.138-.285.338-.7.491-1.074-.445.319-.97.746-1.348,1.053-1.719,1.4-3.345,2.721-4.492,1.573C12.878,20.517,14,18.964,15.424,17a16.33,16.33,0,0,0,1.844-2.941c-1.15.41-4,2.843-6.529,5.614a.994.994,0,0,1-.7.332,1,1,0,0,1-.724-.259,1,1,0,0,1-.059-1.42c1.328-1.457,5.845-6.219,8.216-6.324a1.725,1.725,0,0,1,1.277.436c1.465,1.344-.149,3.575-1.71,5.734l-.018.024c-.193.266-.416.575-.63.883.279-.219.551-.44.774-.621,1.736-1.416,3.237-2.635,4.344-1.527,1.006,1.007.246,2.58-.424,3.968-.122.251-.275.566-.4.851a4.147,4.147,0,0,0,.618-.476,1,1,0,1,1,1.377,1.451Z"/></svg>
